X: 1
T:Munster Jig, The
N:IrTrad, 6/99
M:6/8
S:Charlie Harris, Willie Clancy Summer School 1998
R:jig
Q:120
L:1/8
K:G
D|:~G3 AGA|~B3 gdB|GAB cBA|BGE EDE|
~G3 AGA|~B3 gdB|cBA (3BcdB|1 AGG G2D:|2 AGG G2f
|:gfg efg|eag edB|gfg efg|afd d2f|
gfe agf|gfe fdB|cBA (3BcdB|1 AGG G2f:|2 AGG G3||
